assets/i18n/b-pt-dk.svg

<?xml version="1.0" encoding="UTF-8"?>
<svg width="263px" height="24px" viewBox="0 0 263 24" version="1.1" xmlns="http://www.w3.org/2000/svg" xmlns:xlink="http://www.w3.org/1999/xlink">
    <!-- Generator: Sketch 51.3 (57544) - http://www.bohemiancoding.com/sketch -->
    <title>SwG-Pt Copy-Black</title>
    <desc>Created with Sketch.</desc>
    <defs></defs>
    <g id="SwG-Pt-Copy" stroke="none" stroke-width="1" fill="none" fill-rule="evenodd">
        <path d="M6.302,19.368 C5.10599402,19.368 3.93683905,18.9770039 2.7945,18.195 C1.65216095,17.4129961 0.90466843,16.3166737 0.552,14.906 L2.484,14.124 C2.71400115,15.0286712 3.18549644,15.7914969 3.8985,16.4125 C4.61150356,17.0335031 5.41266222,17.344 6.302,17.344 C7.2220046,17.344 8.00783007,17.1025024 8.6595,16.6195 C9.31116992,16.1364976 9.637,15.4810041 9.637,14.653 C9.637,13.7329954 9.31116992,13.0238358 8.6595,12.5255 C8.00783007,12.0271642 6.97667372,11.5633355 5.566,11.134 C4.10932605,10.6739977 3.00533709,10.079837 2.254,9.3515 C1.50266291,8.62316303 1.127,7.69167234 1.127,6.557 C1.127,5.37632743 1.59466199,4.34900437 2.53,3.475 C3.46533801,2.60099563 4.68432582,2.164 6.187,2.164 C7.58234031,2.164 8.71699563,2.51282984 9.591,3.2105 C10.4650044,3.90817015 11.032332,4.67099586 11.293,5.499 L9.361,6.304 C9.22299931,5.78266406 8.88183606,5.29966889 8.3375,4.855 C7.79316394,4.41033111 7.09167096,4.188 6.233,4.188 C5.42032927,4.188 4.72650287,4.41416441 4.1515,4.8665 C3.57649712,5.3188356 3.289,5.88232996 3.289,6.557 C3.289,7.1703364 3.55349735,7.68783123 4.0825,8.1095 C4.61150264,8.53116878 5.38966153,8.91066498 6.417,9.248 C7.22967073,9.50866797 7.90816395,9.76166544 8.4525,10.007 C8.99683605,10.2523346 9.54883054,10.5781646 10.1085,10.9845 C10.6681695,11.3908354 11.0898319,11.8968303 11.3735,12.5025 C11.6571681,13.1081697 11.799,13.8096627 11.799,14.607 C11.799,15.4043373 11.6341683,16.1173302 11.3045,16.746 C10.9748317,17.3746698 10.5378361,17.8729982 9.9935,18.241 C9.44916394,18.6090018 8.86266981,18.8888324 8.234,19.0805 C7.60533019,19.2721676 6.96133663,19.368 6.302,19.368 Z M23.69575,19 L21.67175,19 L21.67175,17.436 L21.57975,17.436 C21.2577484,17.9726693 20.7670866,18.4288315 20.10775,18.8045 C19.4484134,19.1801685 18.7507537,19.368 18.01475,19.368 C16.6040763,19.368 15.534587,18.938671 14.80625,18.08 C14.077913,17.221329 13.71375,16.0713405 13.71375,14.63 L13.71375,7.73 L15.82975,7.73 L15.82975,14.285 C15.82975,16.3856772 16.7574074,17.436 18.61275,17.436 C19.4867544,17.436 20.1997472,17.0833369 20.75175,16.378 C21.3037528,15.6726631 21.57975,14.8600046 21.57975,13.94 L21.57975,7.73 L23.69575,7.73 L23.69575,19 Z M32.3725,19.368 C31.513829,19.368 30.7433367,19.1840018 30.061,18.816 C29.3786633,18.4479982 28.868835,17.9880028 28.5315,17.436 L28.4395,17.436 L28.4395,19 L26.4155,19 L26.4155,2.532 L28.5315,2.532 L28.5315,7.73 L28.4395,9.294 L28.5315,9.294 C28.868835,8.74199724 29.3786633,8.28200184 30.061,7.914 C30.7433367,7.54599816 31.513829,7.362 32.3725,7.362 C33.8291739,7.362 35.0864947,7.93699425 36.1445,9.087 C37.2025053,10.2370057 37.7315,11.6629915 37.7315,13.365 C37.7315,15.0670085 37.2025053,16.4929942 36.1445,17.643 C35.0864947,18.7930057 33.8291739,19.368 32.3725,19.368 Z M32.0275,17.436 C33.0088382,17.436 33.8521631,17.0641704 34.5575,16.3205 C35.2628369,15.5768296 35.6155,14.5916728 35.6155,13.365 C35.6155,12.1383272 35.2628369,11.1531704 34.5575,10.4095 C33.8521631,9.66582961 33.0088382,9.294 32.0275,9.294 C31.0308283,9.294 30.1836702,9.66199632 29.486,10.398 C28.7883298,11.1340037 28.4395,12.1229938 28.4395,13.365 C28.4395,14.6070062 28.7883298,15.5959963 29.486,16.332 C30.1836702,17.0680037 31.0308283,17.436 32.0275,17.436 Z M43.87825,19.368 C42.6209104,19.368 41.5820874,19.0613364 40.76175,18.448 C39.9414126,17.8346636 39.3395852,17.0680046 38.95625,16.148 L40.84225,15.366 C41.440253,16.7766737 42.4599095,17.482 43.90125,17.482 C44.5605866,17.482 45.1010812,17.3363348 45.52275,17.045 C45.9444188,16.7536652 46.15525,16.3703357 46.15525,15.895 C46.15525,15.1589963 45.6415885,14.660668 44.61425,14.4 L42.33725,13.848 C41.6165797,13.6639991 40.9342532,13.3151692 40.29025,12.8015 C39.6462468,12.2878308 39.32425,11.5940044 39.32425,10.72 C39.32425,9.72332835 39.7650789,8.91450311 40.64675,8.2935 C41.5284211,7.6724969 42.5749106,7.362 43.78625,7.362 C44.7829216,7.362 45.6722461,7.58816441 46.45425,8.0405 C47.2362539,8.4928356 47.795915,9.14066245 48.13325,9.984 L46.29325,10.743 C45.8792479,9.74632835 45.0205899,9.248 43.71725,9.248 C43.0885802,9.248 42.5595855,9.37833203 42.13025,9.639 C41.7009145,9.89966797 41.48625,10.2523311 41.48625,10.697 C41.48625,11.3410032 41.9845783,11.7779988 42.98125,12.008 L45.21225,12.537 C46.2702553,12.7823346 47.0522475,13.203997 47.55825,13.802 C48.0642525,14.400003 48.31725,15.0746629 48.31725,15.826 C48.31725,16.8380051 47.9032541,17.68133 47.07525,18.356 C46.2472459,19.03067 45.1815899,19.368 43.87825,19.368 Z M55.568,19.368 C53.8813249,19.368 52.4936721,18.796839 51.405,17.6545 C50.3163279,16.512161 49.772,15.0823419 49.772,13.365 C49.772,11.6476581 50.3163279,10.217839 51.405,9.0755 C52.4936721,7.93316096 53.8813249,7.362 55.568,7.362 C56.8253396,7.362 57.8679959,7.6686636 58.696,8.282 C59.5240041,8.8953364 60.1296648,9.66966199 60.513,10.605 L58.581,11.41 C57.9983304,9.99932628 56.9480076,9.294 55.43,9.294 C54.494662,9.294 53.6705036,9.6773295 52.9575,10.444 C52.2444964,11.2106705 51.888,12.1843274 51.888,13.365 C51.888,14.5456726 52.2444964,15.5193295 52.9575,16.286 C53.6705036,17.0526705 54.494662,17.436 55.43,17.436 C57.0093412,17.436 58.097997,16.7306737 58.696,15.32 L60.582,16.125 C60.1986648,17.0450046 59.5815043,17.8154969 58.7305,18.4365 C57.8794957,19.0575031 56.8253396,19.368 55.568,19.368 Z M64.56675,19 L62.45075,19 L62.45075,7.73 L64.47475,7.73 L64.47475,9.57 L64.56675,9.57 C64.7814177,8.9566636 65.2222467,8.45066866 65.88925,8.052 C66.5562533,7.65333134 67.2040802,7.454 67.83275,7.454 C68.4614198,7.454 68.9904145,7.54599908 69.41975,7.73 L68.61475,9.708 C68.3387486,9.60066613 67.9630857,9.547 67.48775,9.547 C66.7210795,9.547 66.0425863,9.84983031 65.45225,10.4555 C64.8619137,11.0611697 64.56675,11.8546618 64.56675,12.836 L64.56675,19 Z M75.3595,19.368 C73.6574915,19.368 72.273672,18.8006723 71.208,17.666 C70.142328,16.5313277 69.6095,15.0976753 69.6095,13.365 C69.6095,11.7243251 70.1269948,10.3136726 71.162,9.133 C72.1970052,7.95232743 73.519492,7.362 75.1295,7.362 C76.8008417,7.362 78.1386616,7.90632789 79.143,8.995 C80.1473384,10.0836721 80.6495,11.5403242 80.6495,13.365 L80.6265,13.756 L71.7255,13.756 C71.7868336,14.8906723 72.1663298,15.7876634 72.864,16.447 C73.5616702,17.1063366 74.378162,17.436 75.3135,17.436 C76.8315076,17.436 77.8588307,16.7920064 78.3955,15.504 L80.2815,16.286 C79.9134982,17.1600044 79.3078376,17.8921637 78.4645,18.4825 C77.6211624,19.0728363 76.5861728,19.368 75.3595,19.368 Z M78.3955,12.008 C78.3494998,11.3639968 78.0543361,10.7506696 77.51,10.168 C76.9656639,9.58533042 76.1568387,9.294 75.0835,9.294 C74.3014961,9.294 73.6230029,9.53933088 73.048,10.03 C72.4729971,10.5206691 72.0781677,11.1799959 71.8635,12.008 L78.3955,12.008 Z M85.85325,19 L81.29925,7.73 L83.59925,7.73 L86.91125,16.47 L86.95725,16.47 L90.31525,7.73 L92.56925,7.73 L87.96925,19 L85.85325,19 Z M98.854,19.368 C97.1519915,19.368 95.768172,18.8006723 94.7025,17.666 C93.636828,16.5313277 93.104,15.0976753 93.104,13.365 C93.104,11.7243251 93.6214948,10.3136726 94.6565,9.133 C95.6915052,7.95232743 97.013992,7.362 98.624,7.362 C100.295342,7.362 101.633162,7.90632789 102.6375,8.995 C103.641838,10.0836721 104.144,11.5403242 104.144,13.365 L104.121,13.756 L95.22,13.756 C95.2813336,14.8906723 95.6608298,15.7876634 96.3585,16.447 C97.0561702,17.1063366 97.872662,17.436 98.808,17.436 C100.326008,17.436 101.353331,16.7920064 101.89,15.504 L103.776,16.286 C103.407998,17.1600044 102.802338,17.8921637 101.959,18.4825 C101.115662,19.0728363 100.080673,19.368 98.854,19.368 Z M101.89,12.008 C101.844,11.3639968 101.548836,10.7506696 101.0045,10.168 C100.460164,9.58533042 99.6513387,9.294 98.578,9.294 C97.7959961,9.294 97.1175029,9.53933088 96.5425,10.03 C95.9674971,10.5206691 95.5726677,11.1799959 95.358,12.008 L101.89,12.008 Z M108.33575,19 L106.21975,19 L106.21975,7.73 L108.24375,7.73 L108.24375,9.57 L108.33575,9.57 C108.550418,8.9566636 108.991247,8.45066866 109.65825,8.052 C110.325253,7.65333134 110.97308,7.454 111.60175,7.454 C112.23042,7.454 112.759415,7.54599908 113.18875,7.73 L112.38375,9.708 C112.107749,9.60066613 111.732086,9.547 111.25675,9.547 C110.49008,9.547 109.811586,9.84983031 109.22125,10.4555 C108.630914,11.0611697 108.33575,11.8546618 108.33575,12.836 L108.33575,19 Z M125.06825,19.368 C123.381575,19.368 121.993922,18.796839 120.90525,17.6545 C119.816578,16.512161 119.27225,15.0823419 119.27225,13.365 C119.27225,11.6476581 119.816578,10.217839 120.90525,9.0755 C121.993922,7.93316096 123.381575,7.362 125.06825,7.362 C126.32559,7.362 127.368246,7.6686636 128.19625,8.282 C129.024254,8.8953364 129.629915,9.66966199 130.01325,10.605 L128.08125,11.41 C127.49858,9.99932628 126.448258,9.294 124.93025,9.294 C123.994912,9.294 123.170754,9.6773295 122.45775,10.444 C121.744746,11.2106705 121.38825,12.1843274 121.38825,13.365 C121.38825,14.5456726 121.744746,15.5193295 122.45775,16.286 C123.170754,17.0526705 123.994912,17.436 124.93025,17.436 C126.509591,17.436 127.598247,16.7306737 128.19625,15.32 L130.08225,16.125 C129.698915,17.0450046 129.081754,17.8154969 128.23075,18.4365 C127.379746,19.0575031 126.32559,19.368 125.06825,19.368 Z M132.94,9.087 C134.028672,7.93699425 135.416325,7.362 137.103,7.362 C138.789675,7.362 140.177328,7.93316096 141.266,9.0755 C142.354672,10.217839 142.899,11.6476581 142.899,13.365 C142.899,15.0823419 142.354672,16.512161 141.266,17.6545 C140.177328,18.796839 138.789675,19.368 137.103,19.368 C135.416325,19.368 134.028672,18.796839 132.94,17.6545 C131.851328,16.512161 131.307,15.0823419 131.307,13.365 C131.307,11.6476581 131.851328,10.2216723 132.94,9.087 Z M134.504,16.332 C135.240004,17.0680037 136.106328,17.436 137.103,17.436 C138.099672,17.436 138.962163,17.0641704 139.6905,16.3205 C140.418837,15.5768296 140.783,14.5916728 140.783,13.365 C140.783,12.1383272 140.418837,11.1531704 139.6905,10.4095 C138.962163,9.66582961 138.099672,9.294 137.103,9.294 C136.106328,9.294 135.243837,9.66582961 134.5155,10.4095 C133.787163,11.1531704 133.423,12.1383272 133.423,13.365 C133.423,14.5916728 133.78333,15.5806629 134.504,16.332 Z M144.74475,19 L144.74475,7.73 L146.76875,7.73 L146.76875,9.294 L146.86075,9.294 C147.182752,8.75733065 147.677247,8.30116854 148.34425,7.9255 C149.011253,7.54983145 149.674413,7.362 150.33375,7.362 C152.081759,7.362 153.27008,8.08265946 153.89875,9.524 C154.818755,8.08265946 156.129741,7.362 157.83175,7.362 C159.165757,7.362 160.17008,7.78749574 160.84475,8.6385 C161.51942,9.48950426 161.85675,10.6433261 161.85675,12.1 L161.85675,19 L159.74075,19 L159.74075,12.422 C159.74075,11.2873277 159.533752,10.4823357 159.11975,10.007 C158.705748,9.53166429 158.077088,9.294 157.23375,9.294 C156.405746,9.294 155.719586,9.64666314 155.17525,10.352 C154.630914,11.0573369 154.35875,11.8623288 154.35875,12.767 L154.35875,19 L152.24275,19 L152.24275,12.422 C152.24275,11.2873277 152.035752,10.4823357 151.62175,10.007 C151.207748,9.53166429 150.579088,9.294 149.73575,9.294 C148.907746,9.294 148.221586,9.64666314 147.67725,10.352 C147.132914,11.0573369 146.86075,11.8623288 146.86075,12.767 L146.86075,19 L144.74475,19 Z M170.67725,9.087 C171.765922,7.93699425 173.153575,7.362 174.84025,7.362 C176.526925,7.362 177.914578,7.93316096 179.00325,9.0755 C180.091922,10.217839 180.63625,11.6476581 180.63625,13.365 C180.63625,15.0823419 180.091922,16.512161 179.00325,17.6545 C177.914578,18.796839 176.526925,19.368 174.84025,19.368 C173.153575,19.368 171.765922,18.796839 170.67725,17.6545 C169.588578,16.512161 169.04425,15.0823419 169.04425,13.365 C169.04425,11.6476581 169.588578,10.2216723 170.67725,9.087 Z M172.24125,16.332 C172.977254,17.0680037 173.843578,17.436 174.84025,17.436 C175.836922,17.436 176.699413,17.0641704 177.42775,16.3205 C178.156087,15.5768296 178.52025,14.5916728 178.52025,13.365 C178.52025,12.1383272 178.156087,11.1531704 177.42775,10.4095 C176.699413,9.66582961 175.836922,9.294 174.84025,9.294 C173.843578,9.294 172.981087,9.66582961 172.25275,10.4095 C171.524413,11.1531704 171.16025,12.1383272 171.16025,13.365 C171.16025,14.5916728 171.52058,15.5806629 172.24125,16.332 Z" id="Subscrever-com-o" fill="#FFFFFF"></path>
        <g id="Group" transform="translate(188.000000, 0.000000)" fill="#FFFFFF" fill-rule="nonzero">
            <path d="M9.36714443,19 C4.27673649,19 0,14.7346939 0,9.5 C0,4.26530612 4.27673649,0 9.36714443,0 C12.185226,0 14.1896362,1.13265306 15.6979052,2.62244898 L13.92172,4.44897959 C12.8401323,3.40816327 11.3715546,2.59183673 9.36714443,2.59183673 C5.646086,2.59183673 2.73869901,5.67346939 2.73869901,9.5 C2.73869901,13.3265306 5.646086,16.4081633 9.36714443,16.4081633 C11.7783903,16.4081633 13.1477398,15.4081633 14.030871,14.5102041 C14.755237,13.7653061 15.2216097,12.7040816 15.4002205,11.244898 L9.36714443,11.244898 L9.36714443,8.64285714 L17.8610805,8.64285714 C17.9503859,9.10204082 18,9.66326531 18,10.2653061 C18,12.2142857 17.4840132,14.622449 15.8169791,16.3367347 C14.1896362,18.0714286 12.1256891,19 9.36714443,19 Z" id="Shape"></path>
            <path d="M32,13 C32,16.4557596 29.3096447,19 26,19 C22.6903553,19 20,16.4557596 20,13 C20,9.52420701 22.6903553,7 26,7 C29.3096447,7 32,9.52420701 32,13 Z M29.3705584,13 C29.3705584,10.836394 27.8071066,9.3639399 26,9.3639399 C24.1928934,9.3639399 22.6294416,10.8464107 22.6294416,13 C22.6294416,15.1335559 24.1928934,16.6360601 26,16.6360601 C27.8071066,16.6360601 29.3705584,15.1435726 29.3705584,13 Z" id="Shape"></path>
            <path d="M45,13 C45,16.4557596 42.3096447,19 39,19 C35.7005076,19 33,16.4557596 33,13 C33,9.52420701 35.6903553,7 39,7 C42.3096447,7 45,9.52420701 45,13 Z M42.3807107,13 C42.3807107,10.836394 40.8172589,9.3639399 39.0101523,9.3639399 C37.2030457,9.3639399 35.6395939,10.8464107 35.6395939,13 C35.6395939,15.1335559 37.2030457,16.6360601 39.0101523,16.6360601 C40.8172589,16.6460768 42.3807107,15.1435726 42.3807107,13 Z" id="Shape"></path>
            <path d="M57,7.3621186 L57,17.8929188 C57,22.228555 54.5013055,24 51.5430809,24 C48.7571802,24 47.0913838,22.0915371 46.45953,20.5354059 L48.6518712,19.6056419 C49.0443864,20.5647668 50.0017406,21.6902706 51.5430809,21.6902706 C53.4386423,21.6902706 54.6066144,20.4864709 54.6066144,18.2452504 L54.6066144,17.4035694 L54.5204526,17.4035694 C53.9556136,18.1180196 52.8642298,18.7345999 51.4952132,18.7345999 C48.6231506,18.7345999 46,16.1801957 46,12.8917674 C46,9.58376511 48.6327241,7 51.4952132,7 C52.8642298,7 53.9556136,7.6263673 54.5204526,8.31145653 L54.6066144,8.31145653 L54.6066144,7.3621186 L57,7.3621186 Z M54.7789382,12.9015544 C54.7789382,10.8364997 53.4290688,9.31951641 51.7154047,9.31951641 C49.97302,9.31951641 48.5178416,10.8267127 48.5178416,12.9015544 C48.5178416,14.9470351 49.97302,16.4346575 51.7154047,16.4346575 C53.4290688,16.4346575 54.7789382,14.9470351 54.7789382,12.9015544 Z" id="Shape"></path>
            <polygon id="Shape" points="63 1 63 19 60 19 60 1"></polygon>
            <path d="M72.8441203,14.9732888 L74.8896992,16.3355593 C74.2278943,17.3171953 72.633546,19 69.8760255,19 C66.4567001,19 64,16.3656093 64,13 C64,9.43405676 66.4867821,7 69.5852325,7 C72.7037375,7 74.2278943,9.47412354 74.7292616,10.8163606 L75,11.4974958 L66.9680948,14.8230384 C67.579763,16.0250417 68.5423883,16.6460768 69.8860529,16.6460768 C71.2297174,16.6460768 72.1622607,15.9749583 72.8441203,14.9732888 Z M66.5369189,12.8096828 L71.911577,10.5859766 C71.6107566,9.83472454 70.72835,9.31385643 69.6754786,9.31385643 C68.331814,9.31385643 66.4667274,10.4958264 66.5369189,12.8096828 Z" id="Shape"></path>
        </g>
    </g>
</svg>

<svg width="263" height="24" viewBox="0 0 263 24" xmlns="http://www.w3.org/2000/svg"><title>SwG-Pt-Black</title><desc>Created with Sketch.</desc><g fill="none"><path d="M6.302 19.368c-1.196 0-2.365-.391-3.507-1.173s-1.89-1.878-2.243-3.289l1.932-.782c.23.905.701 1.667 1.414 2.289.713.621 1.514.931 2.403.931.92 0 1.706-.241 2.357-.725.652-.483.978-1.138.978-1.966 0-.92-.326-1.629-.978-2.128-.652-.498-1.683-.962-3.093-1.391-1.457-.46-2.561-1.054-3.312-1.783-.751-.728-1.127-1.66-1.127-2.794 0-1.181.468-2.208 1.403-3.082.935-.874 2.154-1.311 3.657-1.311 1.395 0 2.53.349 3.404 1.046.874.698 1.441 1.46 1.702 2.288l-1.932.805c-.138-.521-.479-1.004-1.024-1.449-.544-.445-1.246-.667-2.105-.667-.813 0-1.506.226-2.081.679-.575.452-.863 1.016-.863 1.691 0 .613.264 1.131.793 1.553.529.422 1.307.801 2.335 1.138.813.261 1.491.514 2.036.759.544.245 1.096.571 1.656.978.56.406.981.912 1.265 1.518.284.606.425 1.307.425 2.104 0 .797-.165 1.51-.494 2.139-.33.629-.767 1.127-1.311 1.495-.544.368-1.131.648-1.759.84-.629.192-1.273.287-1.932.287zm17.394-.368h-2.024v-1.564h-.092c-.322.537-.813.993-1.472 1.369s-1.357.563-2.093.563c-1.411 0-2.48-.429-3.208-1.288-.728-.859-1.093-2.009-1.093-3.45v-6.9h2.116v6.555c0 2.101.928 3.151 2.783 3.151.874 0 1.587-.353 2.139-1.058.552-.705.828-1.518.828-2.438v-6.21h2.116v11.27zm8.677.368c-.859 0-1.629-.184-2.312-.552-.682-.368-1.192-.828-1.529-1.38h-.092v1.564h-2.024v-16.468h2.116v5.198l-.092 1.564h.092c.337-.552.847-1.012 1.529-1.38.682-.368 1.453-.552 2.312-.552 1.457 0 2.714.575 3.772 1.725 1.058 1.15 1.587 2.576 1.587 4.278 0 1.702-.529 3.128-1.587 4.278-1.058 1.15-2.315 1.725-3.772 1.725zm-.345-1.932c.981 0 1.825-.372 2.53-1.116.705-.744 1.058-1.729 1.058-2.955 0-1.227-.353-2.212-1.058-2.956-.705-.744-1.549-1.115-2.53-1.115-.997 0-1.844.368-2.542 1.104-.698.736-1.047 1.725-1.047 2.967s.349 2.231 1.047 2.967c.698.736 1.545 1.104 2.542 1.104zm11.851 1.932c-1.257 0-2.296-.307-3.117-.92-.82-.613-1.422-1.38-1.806-2.3l1.886-.782c.598 1.411 1.618 2.116 3.059 2.116.659 0 1.2-.146 1.622-.437.422-.291.633-.675.633-1.15 0-.736-.514-1.234-1.541-1.495l-2.277-.552c-.721-.184-1.403-.533-2.047-1.046-.644-.514-.966-1.207-.966-2.082 0-.997.441-1.805 1.322-2.427.882-.621 1.928-.931 3.14-.931.997 0 1.886.226 2.668.678.782.452 1.342 1.1 1.679 1.944l-1.84.759c-.414-.997-1.273-1.495-2.576-1.495-.629 0-1.158.13-1.587.391-.429.261-.644.613-.644 1.058 0 .644.498 1.081 1.495 1.311l2.231.529c1.058.245 1.84.667 2.346 1.265.506.598.759 1.273.759 2.024 0 1.012-.414 1.855-1.242 2.53-.828.675-1.894 1.012-3.197 1.012zm11.69 0c-1.687 0-3.074-.571-4.163-1.713-1.089-1.142-1.633-2.572-1.633-4.289 0-1.717.544-3.147 1.633-4.29 1.089-1.142 2.476-1.713 4.163-1.713 1.257 0 2.3.307 3.128.92.828.613 1.434 1.388 1.817 2.323l-1.932.805c-.583-1.411-1.633-2.116-3.151-2.116-.935 0-1.759.383-2.472 1.15-.713.767-1.07 1.74-1.07 2.921 0 1.181.356 2.154 1.07 2.921.713.767 1.537 1.15 2.472 1.15 1.579 0 2.668-.705 3.266-2.116l1.886.805c-.383.92-1 1.69-1.852 2.311-.851.621-1.905.931-3.163.931zm8.999-.368h-2.116v-11.27h2.024v1.84h.092c.215-.613.655-1.119 1.323-1.518.667-.399 1.315-.598 1.944-.598s1.158.092 1.587.276l-.805 1.978c-.276-.107-.652-.161-1.127-.161-.767 0-1.445.303-2.035.909-.59.606-.886 1.399-.886 2.38v6.164zm10.793.368c-1.702 0-3.086-.567-4.151-1.702-1.066-1.135-1.599-2.568-1.599-4.301 0-1.641.517-3.051 1.553-4.232 1.035-1.181 2.357-1.771 3.967-1.771 1.671 0 3.009.544 4.014 1.633 1.004 1.089 1.507 2.545 1.507 4.37l-.023.391h-8.901c.061 1.135.441 2.032 1.139 2.691.698.659 1.514.989 2.45.989 1.518 0 2.545-.644 3.082-1.932l1.886.782c-.368.874-.974 1.606-1.817 2.197-.843.59-1.878.885-3.105.885zm3.036-7.36c-.046-.644-.341-1.257-.885-1.84-.544-.583-1.353-.874-2.427-.874-.782 0-1.46.245-2.035.736-.575.491-.97 1.15-1.184 1.978h6.532zm7.458 6.992l-4.554-11.27h2.3l3.312 8.74h.046l3.358-8.74h2.254l-4.6 11.27h-2.116zm13.001.368c-1.702 0-3.086-.567-4.151-1.702-1.066-1.135-1.599-2.568-1.599-4.301 0-1.641.517-3.051 1.552-4.232 1.035-1.181 2.357-1.771 3.968-1.771 1.671 0 3.009.544 4.014 1.633 1.004 1.089 1.507 2.545 1.507 4.37l-.023.391h-8.901c.061 1.135.441 2.032 1.139 2.691.698.659 1.514.989 2.45.989 1.518 0 2.545-.644 3.082-1.932l1.886.782c-.368.874-.974 1.606-1.817 2.197-.843.59-1.878.885-3.105.885zm3.036-7.36c-.046-.644-.341-1.257-.886-1.84-.544-.583-1.353-.874-2.426-.874-.782 0-1.46.245-2.035.736-.575.491-.97 1.15-1.184 1.978h6.532zm6.446 6.992h-2.116v-11.27h2.024v1.84h.092c.215-.613.655-1.119 1.322-1.518s1.315-.598 1.944-.598 1.158.092 1.587.276l-.805 1.978c-.276-.107-.652-.161-1.127-.161-.767 0-1.445.303-2.035.909-.59.606-.885 1.399-.885 2.38v6.164zm16.733.368c-1.687 0-3.074-.571-4.163-1.713-1.089-1.142-1.633-2.572-1.633-4.289 0-1.717.544-3.147 1.633-4.29 1.089-1.142 2.476-1.713 4.163-1.713 1.257 0 2.3.307 3.128.92.828.613 1.434 1.388 1.817 2.323l-1.932.805c-.583-1.411-1.633-2.116-3.151-2.116-.935 0-1.759.383-2.472 1.15-.713.767-1.07 1.74-1.07 2.921 0 1.181.356 2.154 1.07 2.921.713.767 1.537 1.15 2.472 1.15 1.579 0 2.668-.705 3.266-2.116l1.886.805c-.383.92-1 1.69-1.851 2.311s-1.905.931-3.162.931zm7.872-10.281c1.089-1.15 2.476-1.725 4.163-1.725 1.687 0 3.074.571 4.163 1.713 1.089 1.142 1.633 2.572 1.633 4.29 0 1.717-.544 3.147-1.633 4.289s-2.476 1.713-4.163 1.713c-1.687 0-3.074-.571-4.163-1.713-1.089-1.142-1.633-2.572-1.633-4.289 0-1.717.544-3.143 1.633-4.278zm1.564 7.245c.736.736 1.602 1.104 2.599 1.104.997 0 1.859-.372 2.587-1.116.728-.744 1.093-1.729 1.093-2.955 0-1.227-.364-2.212-1.093-2.956-.728-.744-1.591-1.115-2.587-1.115-.997 0-1.859.372-2.588 1.115-.728.744-1.093 1.729-1.093 2.956 0 1.227.36 2.216 1.081 2.967zm10.241 2.668v-11.27h2.024v1.564h.092c.322-.537.816-.993 1.483-1.369.667-.376 1.33-.564 1.99-.564 1.748 0 2.936.721 3.565 2.162.92-1.441 2.231-2.162 3.933-2.162 1.334 0 2.338.425 3.013 1.277.675.851 1.012 2.005 1.012 3.461v6.9h-2.116v-6.578c0-1.135-.207-1.94-.621-2.415-.414-.475-1.043-.713-1.886-.713-.828 0-1.514.353-2.058 1.058-.544.705-.817 1.51-.817 2.415v6.233h-2.116v-6.578c0-1.135-.207-1.94-.621-2.415-.414-.475-1.043-.713-1.886-.713-.828 0-1.514.353-2.059 1.058-.544.705-.816 1.51-.816 2.415v6.233h-2.116zm25.932-9.913c1.089-1.15 2.476-1.725 4.163-1.725 1.687 0 3.074.571 4.163 1.713 1.089 1.142 1.633 2.572 1.633 4.29 0 1.717-.544 3.147-1.633 4.289s-2.476 1.713-4.163 1.713c-1.687 0-3.074-.571-4.163-1.713-1.089-1.142-1.633-2.572-1.633-4.289 0-1.717.544-3.143 1.633-4.278zm1.564 7.245c.736.736 1.602 1.104 2.599 1.104.997 0 1.859-.372 2.588-1.116.728-.744 1.093-1.729 1.093-2.955 0-1.227-.364-2.212-1.093-2.956-.728-.744-1.591-1.115-2.588-1.115-.997 0-1.859.372-2.588 1.115-.728.744-1.093 1.729-1.093 2.956 0 1.227.36 2.216 1.081 2.967z" fill="#fff"/><g fill-rule="nonzero"><path d="M197.367 19c-5.09 0-9.367-4.265-9.367-9.5s4.277-9.5 9.367-9.5c2.818 0 4.822 1.133 6.331 2.622l-1.776 1.827c-1.082-1.041-2.55-1.857-4.555-1.857-3.721 0-6.628 3.082-6.628 6.908 0 3.827 2.907 6.908 6.628 6.908 2.411 0 3.781-1 4.664-1.898.724-.745 1.191-1.806 1.369-3.265h-6.033v-2.602h8.494c.089.459.139 1.02.139 1.622 0 1.949-.516 4.357-2.183 6.071-1.627 1.735-3.691 2.663-6.45 2.663z" id="Shape" fill="#4285F4"/><path d="M220 13c0 3.456-2.69 6-6 6s-6-2.544-6-6c0-3.476 2.69-6 6-6s6 2.524 6 6zm-2.629 0c0-2.164-1.563-3.636-3.371-3.636-1.807 0-3.371 1.482-3.371 3.636 0 2.134 1.563 3.636 3.371 3.636 1.807 0 3.371-1.492 3.371-3.636z" id="Shape" fill="#E94235"/><path d="M233 13c0 3.456-2.69 6-6 6-3.299 0-6-2.544-6-6 0-3.476 2.69-6 6-6s6 2.524 6 6zm-2.619 0c0-2.164-1.563-3.636-3.371-3.636-1.807 0-3.371 1.482-3.371 3.636 0 2.134 1.563 3.636 3.371 3.636 1.807.01 3.371-1.492 3.371-3.636z" id="Shape" fill="#FABB05"/><path d="M245 7.362v10.531c0 4.336-2.499 6.107-5.457 6.107-2.786 0-4.452-1.908-5.084-3.465l2.192-.93c.393.959 1.35 2.085 2.891 2.085 1.896 0 3.064-1.204 3.064-3.445v-.842h-.086c-.565.714-1.656 1.331-3.025 1.331-2.872 0-5.495-2.554-5.495-5.843 0-3.308 2.633-5.892 5.495-5.892 1.369 0 2.46.626 3.025 1.311h.086v-.949h2.393zm-2.221 5.539c0-2.065-1.35-3.582-3.064-3.582-1.742 0-3.198 1.507-3.198 3.582 0 2.045 1.455 3.533 3.198 3.533 1.714 0 3.064-1.488 3.064-3.533z" id="Shape" fill="#4285F4"/><path id="Shape" fill="#34A853" d="M251 1v18h-3v-18z"/><path d="M260.844 14.973l2.046 1.362c-.662.982-2.256 2.664-5.014 2.664-3.419 0-5.876-2.634-5.876-6 0-3.566 2.487-6 5.585-6 3.119 0 4.643 2.474 5.144 3.816l.271.681-8.032 3.326c.612 1.202 1.574 1.823 2.918 1.823s2.276-.671 2.958-1.673zm-6.307-2.164l5.375-2.224c-.301-.751-1.183-1.272-2.236-1.272-1.344 0-3.209 1.182-3.139 3.496z" fill="#E94235"/></g></g></svg>
